X:380
T:Lady Nelsons Reel. RH.380
R:reel
S:Rev.R.Harrison’s MS,c1815,Cumbria
O:England
A:Temple Sowerby,Cumbria
Z:vmp.Simon Wilson. Review PJH, 2008.
M:C
L:1/8
Q:2/4=90
K:G
g2dg edcB|aefg fddf|g2dg edcB|dABc BGG2:|!
DGBG dBcA|GBde cAAB|GBdf egaf|edef d4{ef}||!
g2dg edcB|aefg fddf|g2dg cgBg|Aedc BGG2|]

